X: 100411
M: 6/8
L: 1/16
Q: "Allegretto."
K: G
|:\
vd6 d6 | d2B2g2 d2B2G2 | c6 c6 | c2A2B2 c2B2A2 |\
d6 d6 | d2B2g2 d2B2G2 | E2A2c2 B2c2A2 | G6- G4 :|
|: ud2 |\
d2B2c2 d2B2c2 | d2B2g2 d2B2G2 | c2A2B2 c2A2B2 | c2A2B2 c2B2A2 |\
d2B2c2 d2B2c2 | d2B2g2 d2B2G2 | E2A2c2 B2c2A2 | G6- G4 :|
|: z2 |\
(vdg)bagf (ed)gfed | (cB)edcB (AG)cBAG | Fac'bag feagfe | (dc)fedc (BA)dcBA |
|: ud2 |\
dcBcde dcBcde | (dg)bagf (ed)cBAG | cBABcd cBABcd | cac'bag fedcBA |
|: ((3uDEF) |\
|: ud2 |\
{e}d2^c2d2 {E}D2^C2D2 | g2f2g2 {E}D2^C2D2 | {d}c2B2c2 {E}D2^C2D2 | a2^g2a2 {E}D2^C2D2 |\
(B2^A2B2) (G2F2G2) | (g2f2g2) (E2^D2E2) | (G2^G2A2) (A2=G2F2) | G6- G4 :|
|: z2 |\
vd2(GB)dg d2(Bd)gb | g2(dg)bd' b2(ga)bg | c'2(c'a)fd c2(af)dc | A2(cA)FD C2(AF)DC |
|: (uGABc) |\
d2(dcBA) G2(BAGF) | E2(GFED) C2(ABcd) | e2(edcB) A2(cBAG) | F2(AGFE) D2(DEFD) |


